assets/Hibiscus/Flat/hibiscus_flat.svg

<svg width="32" height="32" viewBox="0 0 32 32" fill="none" xmlns="http://www.w3.org/2000/svg">
<path d="M25.251 15.4953C21.551 13.6453 16.861 15.1853 14.921 19.0053L14.571 19.6853C14.4843 19.852 14.4999 20.0409 14.594 20.1868C14.4587 20.2755 14.371 20.4284 14.371 20.6053V21.3653C14.371 25.6453 17.851 29.1453 21.981 29.1753L27.131 29.1853C27.391 29.1853 27.591 28.9653 27.581 28.7053C27.4558 26.3222 26.4058 24.1697 24.7834 22.6142C26.9279 21.9594 28.8324 20.5179 30.021 18.4553C30.151 18.2253 30.071 17.9453 29.841 17.8253L25.251 15.4953Z" fill="#86D72F"/>
<path d="M24.911 8.10535C23.341 7.26535 21.561 7.27535 20.061 7.96535C20.211 6.34535 19.661 4.67535 18.381 3.47535C16.181 1.41535 12.721 1.52535 10.651 3.72535C9.471 4.98535 9.021 6.65535 9.251 8.24535C7.751 7.72535 6.031 7.86535 4.581 8.76535C2.021 10.3554 1.231 13.7254 2.821 16.2954C3.631 17.6054 4.911 18.4454 6.301 18.7454C5.591 19.9054 5.311 21.3354 5.631 22.7654C6.281 25.7154 9.201 27.5754 12.151 26.9154C13.481 26.6254 14.591 25.8654 15.341 24.8454C16.181 25.8054 17.361 26.4854 18.731 26.6754C21.721 27.0754 24.471 24.9754 24.881 21.9854C25.071 20.5754 24.701 19.2154 23.941 18.1354C25.271 17.7254 26.451 16.8154 27.161 15.4854C28.581 12.8354 27.571 9.52535 24.911 8.10535Z" fill="#FF6DC6"/>
<path d="M20.841 10.7153C19.911 10.2153 18.851 10.2253 17.961 10.6353C18.071 9.45526 17.551 8.22526 16.371 7.52526C15.321 6.90526 13.961 6.94526 12.951 7.63526C11.821 8.39526 11.381 9.63526 11.551 10.8053C10.511 10.4453 9.29099 10.6153 8.35099 11.4253C7.34099 12.2953 6.97099 13.7853 7.46099 15.0253C7.89099 16.1153 8.79099 16.8153 9.80099 17.0353C9.28099 17.8953 9.15099 18.9953 9.61099 20.0553C10.121 21.1953 11.301 21.9653 12.551 21.9653C13.661 21.9553 14.581 21.4353 15.161 20.6653C16.101 21.7453 17.761 22.2253 19.541 21.2553C20.371 20.8053 20.841 19.9053 20.811 18.9653C20.921 18.1253 20.701 17.3253 20.251 16.6853C21.041 16.4453 21.741 15.9053 22.161 15.1153C23.011 13.5253 22.421 11.5553 20.841 10.7153Z" fill="#F70A8D"/>
<path d="M14.901 16.4754C15.9779 16.4754 16.851 15.6024 16.851 14.5254C16.851 13.4485 15.9779 12.5754 14.901 12.5754C13.824 12.5754 12.951 13.4485 12.951 14.5254C12.951 15.6024 13.824 16.4754 14.901 16.4754Z" fill="#FFF478"/>
<path d="M14.851 15.0753C14.711 15.0753 14.571 15.0153 14.471 14.9053L10.691 10.5753C10.511 10.3653 10.531 10.0453 10.741 9.86535C10.951 9.68535 11.261 9.70535 11.451 9.91535L15.241 14.2453C15.421 14.4553 15.401 14.7653 15.191 14.9553C15.091 15.0253 14.971 15.0753 14.851 15.0753Z" fill="#F9C23C"/>
<path d="M10.4118 9.77028C10.6824 9.77028 10.9018 9.5509 10.9018 9.28028C10.9018 9.00966 10.6824 8.79028 10.4118 8.79028C10.1412 8.79028 9.92179 9.00966 9.92179 9.28028C9.92179 9.5509 10.1412 9.77028 10.4118 9.77028Z" fill="#FFF478"/>
<path d="M11.5218 9.86028C11.7924 9.86028 12.0118 9.6409 12.0118 9.37028C12.0118 9.09966 11.7924 8.88028 11.5218 8.88028C11.2512 8.88028 11.0318 9.09966 11.0318 9.37028C11.0318 9.6409 11.2512 9.86028 11.5218 9.86028Z" fill="#FFF478"/>
<path d="M10.7518 10.4603C10.7518 10.7309 10.5324 10.9503 10.2618 10.9503C9.99117 10.9503 9.77179 10.7309 9.77179 10.4603C9.77179 10.1897 9.99117 9.97028 10.2618 9.97028C10.5324 9.97028 10.7518 10.1897 10.7518 10.4603Z" fill="#FFF478"/>
<path d="M11.1618 11.7503C11.4324 11.7503 11.6518 11.5309 11.6518 11.2603C11.6518 10.9897 11.4324 10.7703 11.1618 10.7703C10.8912 10.7703 10.6718 10.9897 10.6718 11.2603C10.6718 11.5309 10.8912 11.7503 11.1618 11.7503Z" fill="#FFF478"/>
<path d="M12.6218 10.3603C12.6218 10.6309 12.4024 10.8503 12.1318 10.8503C11.8612 10.8503 11.6418 10.6309 11.6418 10.3603C11.6418 10.0897 11.8612 9.87028 12.1318 9.87028C12.4024 9.87028 12.6218 10.0897 12.6218 10.3603Z" fill="#FFF478"/>
</svg>

<svg xmlns="http://www.w3.org/2000/svg" width="32" height="32" fill="none"><path fill="#86D72F" d="M25.251 15.495c-3.7-1.85-8.39-.31-10.33 3.51l-.35.68a.497.497 0 0 0 .023.502.496.496 0 0 0-.223.418v.76c0 4.28 3.48 7.78 7.61 7.81l5.15.01c.26 0 .46-.22.45-.48a9.097 9.097 0 0 0-2.798-6.09 9.103 9.103 0 0 0 5.238-4.16.45.45 0 0 0-.18-.63l-4.59-2.33Z"/><path fill="#FF6DC6" d="M24.911 8.105a5.423 5.423 0 0 0-4.85-.14c.15-1.62-.4-3.29-1.68-4.49a5.477 5.477 0 0 0-7.73.25c-1.18 1.26-1.63 2.93-1.4 4.52-1.5-.52-3.22-.38-4.67.52a5.474 5.474 0 0 0-1.76 7.53 5.422 5.422 0 0 0 3.48 2.45 5.418 5.418 0 0 0-.67 4.02 5.454 5.454 0 0 0 6.52 4.15 5.366 5.366 0 0 0 3.19-2.07c.84.96 2.02 1.64 3.39 1.83 2.99.4 5.74-1.7 6.15-4.69.19-1.41-.18-2.77-.94-3.85a5.455 5.455 0 0 0 .97-10.03Z"/><path fill="#F70A8D" d="M20.841 10.715c-.93-.5-1.99-.49-2.88-.08a3.228 3.228 0 0 0-5.01-3c-1.13.76-1.57 2-1.4 3.17a3.25 3.25 0 0 0-3.2.62c-1.01.87-1.38 2.36-.89 3.6a3.248 3.248 0 0 0 2.34 2.01c-.52.86-.65 1.96-.19 3.02a3.27 3.27 0 0 0 2.94 1.91 3.26 3.26 0 0 0 2.61-1.3c.94 1.08 2.6 1.56 4.38.59.83-.45 1.3-1.35 1.27-2.29.11-.84-.11-1.64-.56-2.28a3.21 3.21 0 0 0 1.91-1.57c.85-1.59.26-3.56-1.32-4.4Z"/><path fill="#FFF478" d="M14.901 16.475a1.95 1.95 0 1 0 0-3.9 1.95 1.95 0 0 0 0 3.9Z"/><path fill="#F9C23C" d="M14.851 15.075c-.14 0-.28-.06-.38-.17l-3.78-4.33a.505.505 0 0 1 .05-.71c.21-.18.52-.16.71.05l3.79 4.33c.18.21.16.52-.05.71a.61.61 0 0 1-.34.12Z"/><path fill="#FFF478" d="M10.412 9.77a.49.49 0 1 0 0-.98.49.49 0 0 0 0 .98ZM11.522 9.86a.49.49 0 1 0 0-.98.49.49 0 0 0 0 .98ZM10.752 10.46a.49.49 0 1 1-.98 0 .49.49 0 0 1 .98 0ZM11.162 11.75a.49.49 0 1 0 0-.98.49.49 0 0 0 0 .98ZM12.622 10.36a.49.49 0 1 1-.98 0 .49.49 0 0 1 .98 0Z"/></svg>
